!! 00000] TT[WS
!!!OTL: Ma yanxishan
!!!ARE: Asia, China, Shanxi Yongji
!! Ethnic Group: Han
!! WI, 306 (1)
!!!SCT: J0369
!!!YEM: Copyright 1995, estate of Helmut Schaffrath.
**kern
*ICvox
*Ivox
*M2/4
*k[b-e-]
*B-:
{8ccc
16ccc
16ccc
8bb-
8gg
=1
8ccc
8ccc
8bb-
8gg
=2
16ccc
16ccc
16ccc
16fff
8bb-
8gg
=3
8ee-
8cc
8ff
8cc}
=4
{8.ff
16gg
8ccc
8bb-
=5
8ccc
16gg
16ff
8ee-
8ee-
=6
8gg
16gg
16cc
16gg
16ff
16ee-
16cc
=7
8cc
8b-
4cc}
=8
{8ff
16ff
16gg
8.ccc
16bb-
=9
8ccc
16gg
16ff
8ee-
8ee-
=10
16gg
16gg
16gg
16ccc
16gg
16ff
16ee-
16cc
=11
8cc
8b-
4cc}
==
!!!AGN: Xiaodiao. Xinminge, Xuanchuan
!! Neue Text. Politische Liede
!!!ONB: ESAC (Essen Associative Code) Database: CHINA
!!!AMT: simple duple
!!!AIN: vox
!!!EED: Helmut Schaffrath
!!!EEV: 1.0
*-
